X: 1
T:Junior Crehan's (Port An Lurga Donn)
R:Jig
C:Junior Crehan
S:Tony Smith, Cavan (fiddle)
N:As played
Z:Bernie Stocks
M:6/8
L:1/8
K:D
d|:BAF AFE|D2F EDB,|A,B,D {G}EDE|FEE E2d|!
{d}BAF AFE|(3.D.E.F D EDB,|A,B,D {G}EDE|1 FDD D2d:|2 FDD D2E||!
|:DFA ~d3|ede {a}fdB|def edB|ABd e2f|!
edB {d}BAF|(3.D.E.F D EDB,|A,B,D {G}EDE|1 FDD D2E:|2 FDD D3||!
